X: 6
T: The Fermoy Lasses
R: reel
M: 4/4
L: 1/8
K: Emin
|:BA|GE E2 BE E2|GE E2 B3A|GE E2 BE E2|AFDF AcBA|
GE E2 BE E2|GE E2 B3A|G3F GBdB|AFDF AcBA:||
|:G2 BG dGBG|G2 (3Bcd efg2|G2 BG dGBG|AFDF AcBA|
G2 BG dGBG|G2 (3Bcd efg2|afge dedB|AFDF AcBA:||


Tune 219	Setting 12902

